icons/pain_managment_fill.svg

<svg width="48" height="48" viewBox="0 0 48 48" fill="none" xmlns="http://www.w3.org/2000/svg">
<path fill-rule="evenodd" clip-rule="evenodd" d="M9 6C7.34315 6 6 7.34315 6 9V39C6 40.6569 7.34315 42 9 42H39C40.6569 42 42 40.6569 42 39V9C42 7.34315 40.6569 6 39 6H9ZM29.5358 10.8676C29.6039 10.4656 29.3458 10.0822 28.9593 10.0114C28.5728 9.94046 28.2042 10.2089 28.136 10.6109L27.4382 14.7264L24.8705 13.0172L23.4165 18.9996C23.3204 19.3954 23.5509 19.7973 23.9314 19.8974C24.3119 19.9974 24.6984 19.7577 24.7946 19.3619L25.7653 15.368L28.4677 17.1669L29.5358 10.8676ZM13.3939 13.1262C13.5976 12.7773 14.0347 12.6661 14.3702 12.8779L20.032 16.4519L17.2053 18.5978L20.8072 21.2641C21.127 21.5008 21.2017 21.9623 20.9742 22.2949C20.7466 22.6275 20.3028 22.7052 19.9831 22.4685L14.7745 18.6129L17.472 16.5651L13.6327 14.1416C13.2972 13.9298 13.1903 13.4752 13.3939 13.1262ZM10.3641 27.0521C10.0215 27.2513 9.89896 27.7016 10.0904 28.0579C10.2819 28.4143 10.7149 28.5417 11.0575 28.3426L14.8411 26.1435L15.2127 29.4944L20.868 26.7501C21.2236 26.5775 21.3775 26.1376 21.2115 25.7677C21.0455 25.3978 20.6227 25.2378 20.267 25.4104L16.3987 27.2875L16.0088 23.7713L10.3641 27.0521ZM19.403 37.193C19.367 37.5995 19.6547 37.9594 20.0455 37.9968C20.4364 38.0343 20.7824 37.7351 20.8184 37.3286L21.1933 33.0938L23.9265 34.5977L24.9116 28.44C24.976 28.0374 24.7143 27.6566 24.3272 27.5896C23.94 27.5226 23.5739 27.7947 23.5095 28.1974L22.8481 32.3318L19.9734 30.7501L19.403 37.193ZM37.9123 20.3784C38.101 20.7363 37.9751 21.1856 37.631 21.382L32.2191 24.4694L31.8752 21.137L28.2528 22.8587C27.8959 23.0284 27.4742 22.8649 27.3111 22.4936C27.1479 22.1223 27.3051 21.6838 27.6621 21.5141L33.078 18.9399L33.4048 22.1068L36.9474 20.0858C37.2915 19.8895 37.7235 20.0205 37.9123 20.3784ZM33.2475 34.0245C33.5831 34.2363 34.0201 34.1251 34.2238 33.7761C34.4274 33.4272 34.3205 32.9725 33.985 32.7607L30.4644 30.5384L32.9766 28.6313L28.0636 24.9944C27.7438 24.7577 27.3001 24.8355 27.0725 25.1681C26.8449 25.5006 26.9196 25.9622 27.2394 26.1989L30.5458 28.6464L27.9044 30.6517L33.2475 34.0245Z" fill="black"/>
</svg>

<svg
  xmlns="http://www.w3.org/2000/svg"
  width="24"
  height="24"
  viewBox="0 0 24 24"
  fill="none"
  stroke="currentColor"
  stroke-width="2"
  stroke-linecap="round"
  stroke-linejoin="round"
>
  <path
    fill-rule="evenodd"
    d="M9 6a3 3 0 0 0-3 3v30a3 3 0 0 0 3 3h30a3 3 0 0 0 3-3V9a3 3 0 0 0-3-3zm20.536 4.868c.068-.402-.19-.786-.577-.857a.714.714 0 0 0-.823.6l-.698 4.115-2.567-1.709L23.417 19a.74.74 0 0 0 .514.897c.38.1.767-.14.864-.535l.97-3.994 2.703 1.799zm-16.142 2.258a.695.695 0 0 1 .976-.248l5.662 3.574-2.827 2.146 3.602 2.666c.32.237.395.698.167 1.03a.693.693 0 0 1-.99.174l-5.21-3.855 2.698-2.048-3.84-2.423a.756.756 0 0 1-.238-1.016m-3.03 13.926a.755.755 0 0 0-.274 1.006.696.696 0 0 0 .967.285l3.784-2.2.372 3.351 5.655-2.744a.75.75 0 0 0 .344-.982.7.7 0 0 0-.945-.358l-3.868 1.878-.39-3.517zm9.039 10.141c-.036.407.252.766.643.804a.72.72 0 0 0 .772-.668l.375-4.235 2.733 1.504.986-6.158c.064-.403-.198-.783-.585-.85a.714.714 0 0 0-.818.607l-.66 4.135-2.876-1.582zm18.51-16.815a.755.755 0 0 1-.282 1.004l-5.412 3.087-.344-3.332-3.622 1.722a.7.7 0 0 1-.942-.365.75.75 0 0 1 .351-.98l5.416-2.574.327 3.167 3.542-2.021a.697.697 0 0 1 .965.292m-4.665 13.647c.335.211.772.1.976-.249a.756.756 0 0 0-.239-1.015l-3.52-2.223 2.512-1.907-4.913-3.637a.693.693 0 0 0-.991.174.76.76 0 0 0 .166 1.03l3.307 2.448-2.642 2.006z"
    clip-rule="evenodd"
  />
</svg>
